X:1
T:Gravsang
T:Gravsang
T:Tysk  Melodi
T:Joh. D. Behrens
T:Æmilie Juliane, Grevinde af Schwarzburg-Rudolstadt
C:Joh. D. Behrens
Z:Æmilie Juliane, Grevinde af Schwarzburg.Rudolstadt
%%score [ 1 2 3 4 ]
L:1/8
M:4/4
K:D
V:1 treble-8 nm="T1"
V:2 treble-8 nm="T2"
V:3 bass nm="B1"
V:4 bass nm="B2"
V:1
 z2!mf![Q:1/4=71]"^Adagio" A2 d2 A2 | B2 B2 A3 G | F2 D2 z2 F2 | G2 F2 E2 A2 | B2 B2 A4 :| %5
w: 1.Hvo ved, hvor|nær mig er min|En- de! Se,|Ti- den me- get|ha- stig gaar;|
w: hvor let og|snart kan det sig|hæn- de, at|jeg mit Van- dre-|bud- skab faar.|
w: 2.I næ- ste|Nat maa- ske du|kal- der min|Sjel hen i din|E- vig- hed,|
w: maa- ske mit|Le- gems Hyt- te|fal- der, for-|in- den So- lens|Lys gaar ned.|
 z2 A2!<(! d2 e2 | f2!<)! d2 g2 f2 | e4 z2 f2 | d2 B2 A2 d2 |!>(! d2 c2 !fermata!d4!>)! |] %10
w: 1.2.Giv mig, o|Gud! ved Je- su|Tro i|Af- skeds- ti- men|Trøst og Ro.|
w: |||||
w: |||||
w: |||||
V:2
 z2!mf! F2 D2 F2 | G2 G2 E2 E2 | F2 D2 z2 F2 | G2 F2 E2 A2 | A2 ^G2 A4 :| z2 A2!<(! A2 c2 | %6
w: 1.Hvo ved, hvor|nær mig er min|En- de! Se,|Ti- den me- get|ha- stig gaar;|1.2.Giv mig, o|
w: hvor let og|snart kan det sig|hæn- de, at|jeg mit Van- dre-|bud- skab faar.||
w: 2.I næ- ste|Nat maa- ske du|kal- der min|Sjel hen i din|E- vig- hed,||
w: maa- ske mit|Le- gems Hyt- te|fal- der, for-|in- den So- lens|Lys gaar ned.||
 d2!<)! B2 (Bc) d2 | c4 z2 A2 | d2 B2 A2 B2 |!>(! B2 A2 !fermata!A4!>)! |] %10
w: Gud! ved Je- * su|Tro i|Af- skeds- ti- men|Trøst og Ro.|
w: ||||
w: ||||
w: ||||
V:3
 z2!mf! D,2 F,2 D,2 | D,2 E,2 E,2 C,2 | D,2 D,2 z2 D,2 | D,2 D,2 C,2 F,2 | F,2 E,2 C,4 :| %5
w: 1.Hvo ved, hvor|nær mig er min|En- de! Se,|Ti- den me- get|ha- stig gaar;|
w: hvor let og|snart kan det sig|hæn- de, at|jeg mit Van- dre-|bud- skab faar.|
w: 2.I næ- ste|Nat maa- ske du|kal- der min|Sjel hen i din|E- vig- hed,|
w: maa- ske mit|Le- gems Hyt- te|fal- der, for-|in- den So- lens|Lys gaar ned.|
 z2 A,2!<(! A,2 A,2 | A,2!<)! B,2 G,2 A,2 | A,4 z2 A,2 | A,2 G,2 F,2 F,2 | %9
w: 1.2.Giv mig, o|Gud! ved Je- su|Tro i|Af- skeds- ti- men|
w: ||||
w: ||||
w: ||||
!>(! G,2 E,2 !fermata!F,4!>)! |] %10
w: Trøst og Ro.|
w: |
w: |
w: |
V:4
 z2!mf! D,2 B,,2 D,2 | G,,2 E,2 C,2 A,,2 | D,2 D,2 z2 D,2 | B,,2 D,2 A,,2 F,2 | D,2 E,2 A,,4 :| %5
w: 1.Hvo ved, hvor|nær mig er min|En- de! Se,|Ti- den me- get|ha- stig gaar;|
w: hvor let og|snart kan det sig|hæn- de, at|jeg mit Van- dre-|bud- skab faar.|
w: 2.I næ- ste|Nat maa- ske du|kal- der min|Sjel hen i din|E- vig- hed,|
w: maa- ske mit|Le- gems Hyt- te|fal- der, for-|in- den So- lens|Lys gaar ned.|
 z2 A,2!<(! F,2 A,2 | D,2!<)! G,2 E,2 D,2 | A,,4 z2 D,2 | F,2 G,2 D,2 B,,2 | %9
w: 1.2.Giv mig, o|Gud! ved Je- su|Tro i|Af- skeds- ti- men|
w: ||||
w: ||||
w: ||||
!>(! G,,2 A,,2 !fermata!D,4!>)! |] %10
w: Trøst og Ro.|
w: |
w: |
w: |

